build/img/logo.svg

<svg width="75" height="75" viewBox="0 0 75 75" fill="none" xmlns="http://www.w3.org/2000/svg">
<circle cx="37.5" cy="37.5" r="37.5" fill="#1D1D1B"/>
<rect x="33" y="65" width="8" height="1" fill="white"/>
<path d="M33 7.5L33.5 18H41.5L42 7.5L39.5 12L37.5 8C37 9.16667 35.5 12 35.5 12L33 7.5Z" fill="white"/>
<path d="M13.4473 35.1162H16.1104C16.6729 35.1162 17.0918 35.0137 17.3672 34.8086C17.6426 34.5977 17.7803 34.2812 17.7803 33.8594C17.7803 33.4668 17.6514 33.1709 17.3936 32.9717C17.1357 32.7666 16.7549 32.6641 16.251 32.6641H13.4473V35.1162ZM13.4473 40.4248H15.9521C16.7432 40.4248 17.2969 40.3164 17.6133 40.0996C17.9297 39.877 18.0879 39.5049 18.0879 38.9834C18.0879 38.5146 17.9355 38.1631 17.6309 37.9287C17.332 37.6885 16.8838 37.5684 16.2861 37.5684H13.4473V40.4248ZM10.2744 43V30.0537H16.5586C18.0645 30.0537 19.1748 30.3262 19.8896 30.8711C20.6104 31.4102 20.9707 32.2422 20.9707 33.3672C20.9707 34.0645 20.8096 34.6416 20.4873 35.0986C20.1709 35.5498 19.6846 35.8984 19.0283 36.1445C19.7783 36.3379 20.3525 36.6865 20.751 37.1904C21.1494 37.6885 21.3486 38.3096 21.3486 39.0537C21.3486 39.7803 21.1816 40.4365 20.8477 41.0225C20.5195 41.6084 20.0566 42.0625 19.459 42.3848C19.0547 42.6074 18.5654 42.7656 17.9912 42.8594C17.417 42.9531 16.5322 43 15.3369 43H10.2744ZM23.4844 43V30.0537H26.7891V43H23.4844ZM32.6953 35.5996H35.165C35.833 35.5996 36.3223 35.4766 36.6328 35.2305C36.9492 34.9844 37.1074 34.5918 37.1074 34.0527C37.1074 33.5781 36.9551 33.2266 36.6504 32.998C36.3457 32.7637 35.8799 32.6465 35.2529 32.6465H32.6953V35.5996ZM29.3994 43V30.0537H35.5957C37.2363 30.0537 38.4434 30.3467 39.2168 30.9326C39.9961 31.5186 40.3857 32.4268 40.3857 33.6572C40.3857 34.3838 40.2188 35.0078 39.8848 35.5293C39.5566 36.0449 39.0439 36.4785 38.3467 36.8301C38.915 37.0469 39.3164 37.3428 39.5508 37.7178C39.7852 38.0869 39.9199 38.7402 39.9551 39.6777C39.9727 39.9414 39.9902 40.2959 40.0078 40.7412C40.0488 41.7842 40.2275 42.3877 40.5439 42.5518V43H37.0723C36.9023 42.543 36.8057 41.916 36.7822 41.1191C36.7588 40.3223 36.7354 39.8213 36.7119 39.6162C36.6592 39.1123 36.4893 38.7432 36.2021 38.5088C35.915 38.2744 35.4844 38.1572 34.9102 38.1572H32.6953V43H29.3994ZM42.6357 43V30.0537H52.4707V32.708H45.9492V34.9932H51.9082V37.5859H45.9492V40.3545H52.6816V43H42.6357ZM53.2617 43L57.4365 36.3555L53.4902 30.0537H57.2695L59.2559 33.5166L61.2334 30.0537H65.0127L61.0312 36.3555L65.25 43H61.4268L59.2559 39.2383L57.0586 43H53.2617Z" fill="white"/>
</svg>

<svg width="75" height="75" fill="none" xmlns="http://www.w3.org/2000/svg"><circle cx="37.5" cy="37.5" r="37.5" fill="#1D1D1B"/><path fill="#fff" d="M33 65h8v1h-8zm0-57.5l.5 10.5h8L42 7.5 39.5 12l-2-4c-.5 1.167-2 4-2 4L33 7.5zM13.447 35.116h2.663c.563 0 .982-.102 1.257-.307.276-.211.413-.528.413-.95 0-.392-.129-.688-.386-.887-.258-.205-.64-.308-1.143-.308h-2.804v2.452zm0 5.309h2.505c.791 0 1.345-.109 1.661-.325.317-.223.475-.595.475-1.117 0-.468-.152-.82-.457-1.054-.299-.24-.747-.36-1.345-.36h-2.839v2.856zM10.274 43V30.054h6.285c1.505 0 2.616.272 3.33.817.721.54 1.082 1.371 1.082 2.496 0 .698-.161 1.275-.484 1.732-.316.45-.802.8-1.459 1.046.75.193 1.325.541 1.723 1.045.398.498.598 1.12.598 1.864a3.9 3.9 0 0 1-.501 1.968 3.418 3.418 0 0 1-1.389 1.363c-.404.222-.894.38-1.468.474-.574.094-1.459.141-2.654.141h-5.063zm13.21 0V30.054h3.305V43h-3.305zm9.211-7.4h2.47c.668 0 1.157-.123 1.468-.37.316-.246.474-.638.474-1.177 0-.475-.152-.826-.457-1.055-.304-.234-.77-.351-1.397-.351h-2.558V35.6zM29.4 43V30.054h6.197c1.64 0 2.847.293 3.62.879.78.586 1.17 1.494 1.17 2.724 0 .727-.167 1.35-.501 1.872-.328.516-.841.95-1.538 1.301.568.217.97.513 1.204.888.234.369.369 1.022.404 1.96.018.263.035.618.053 1.063.04 1.043.22 1.647.536 1.81V43h-3.472c-.17-.457-.266-1.084-.29-1.88-.023-.798-.047-1.299-.07-1.504-.053-.504-.223-.873-.51-1.107-.287-.235-.718-.352-1.292-.352h-2.215V43H29.4zm13.237 0V30.054h9.835v2.654H45.95v2.285h5.96v2.593h-5.96v2.769h6.733V43H42.636zm10.626 0l4.175-6.645-3.947-6.301h3.78l1.986 3.463 1.977-3.463h3.78l-3.982 6.302L65.25 43h-3.823l-2.171-3.762L57.059 43h-3.797z"/></svg>
